X: 1
T:Kas ha barh
C:Carr Manchot "Noz!"
M:4/4
L:1/8
K:C
A2AB A2AG|FEFG A2E2|AGAB A2AG|FEFG A2E2:|A2AB B2BA|
FAAG E4|:A2AG FGFE|A2AG FGFE|A2B2 A2AG|FEFG A4:|
